exported-svg/plus-square.svg

<svg height="24" viewBox="0 0 24 24" width="24" xmlns="http://www.w3.org/2000/svg"><path d="m5.5 3h14c1.3807119 0 2.5 1.11928813 2.5 2.5v14c0 1.3807119-1.1192881 2.5-2.5 2.5h-14c-1.38071187 0-2.5-1.1192881-2.5-2.5v-14c0-1.38071187 1.11928813-2.5 2.5-2.5zm0 1c-.82842712 0-1.5.67157288-1.5 1.5v14c0 .8284271.67157288 1.5 1.5 1.5h14c.8284271 0 1.5-.6715729 1.5-1.5v-14c0-.82842712-.6715729-1.5-1.5-1.5zm7.5 8h3.5c.2761424 0 .5.2238576.5.5s-.2238576.5-.5.5h-3.5v3.5c0 .2761424-.2238576.5-.5.5s-.5-.2238576-.5-.5v-3.5h-3.5c-.27614237 0-.5-.2238576-.5-.5s.22385763-.5.5-.5h3.5v-3.5c0-.27614237.2238576-.5.5-.5s.5.22385763.5.5z"/></svg>

<?xml version="1.0" encoding="UTF-8"?>
<svg width="24px" height="24px" viewBox="0 0 24 24" version="1.1" xmlns="http://www.w3.org/2000/svg" xmlns:xlink="http://www.w3.org/1999/xlink">
    <!-- Generator: Sketch 55.2 (78181) - https://sketchapp.com -->
    <title>plus-square</title>
    <desc>Created with Sketch.</desc>
    <g id="plus-square" stroke="none" stroke-width="1" fill="none" fill-rule="evenodd">
        <path d="M5.5,3 L19.5,3 C20.8807119,3 22,4.11928813 22,5.5 L22,19.5 C22,20.8807119 20.8807119,22 19.5,22 L5.5,22 C4.11928813,22 3,20.8807119 3,19.5 L3,5.5 C3,4.11928813 4.11928813,3 5.5,3 Z M5.5,4 C4.67157288,4 4,4.67157288 4,5.5 L4,19.5 C4,20.3284271 4.67157288,21 5.5,21 L19.5,21 C20.3284271,21 21,20.3284271 21,19.5 L21,5.5 C21,4.67157288 20.3284271,4 19.5,4 L5.5,4 Z" id="Rectangle-path" fill="#000000" fill-rule="nonzero"></path>
        <path d="M13,12 L16.5,12 C16.7761424,12 17,12.2238576 17,12.5 C17,12.7761424 16.7761424,13 16.5,13 L13,13 L13,16.5 C13,16.7761424 12.7761424,17 12.5,17 C12.2238576,17 12,16.7761424 12,16.5 L12,13 L8.5,13 C8.22385763,13 8,12.7761424 8,12.5 C8,12.2238576 8.22385763,12 8.5,12 L12,12 L12,8.5 C12,8.22385763 12.2238576,8 12.5,8 C12.7761424,8 13,8.22385763 13,8.5 L13,12 Z" id="Combined-Shape" fill="#000000" fill-rule="nonzero"></path>
    </g>
</svg>
